X: 305854
M: 6/8
L: 1/8
K: A
E/G/ |\
K:=f=c=g
e |\
a^ga c'bc' | e'd'e' c'ba | ^g^fg bab | ^g^fg eBF |\
a^ga c'bc' | e'd'e' c'ba | ^gab e^f^g | b3 "^D.C."a2 |]


